Newaita-dark/apps/48/riot.svg

<svg height="48" viewBox="0 0 48 48" width="48" xmlns="http://www.w3.org/2000/svg" xmlns:xlink="http://www.w3.org/1999/xlink"><linearGradient id="a"><stop offset="0" stop-opacity=".27451"/><stop offset="1" stop-opacity="0"/></linearGradient><linearGradient id="b" gradientUnits="userSpaceOnUse" x1="23.81478" x2="23.81478" xlink:href="#a" y1="42.0509045" y2="44.03547050005"/><linearGradient id="c"><stop offset="0" stop-opacity=".313726"/><stop offset=".222222" stop-opacity=".27451"/><stop offset="1" stop-opacity="0"/></linearGradient><radialGradient id="d" cx="450.908936" cy="189.579361" gradientTransform="matrix(.00000026 -.117199 -.210958 -.00000015 55.37348 95.392999)" gradientUnits="userSpaceOnUse" r="21.166656" xlink:href="#c"/><radialGradient id="e" cx="450.908936" cy="189.579361" gradientTransform="matrix(-.00000026 .117199 .210958 .00000015 -25.605013 -11.291218)" gradientUnits="userSpaceOnUse" r="21.166656" xlink:href="#c"/><radialGradient id="f" cx="450.908936" cy="189.579361" gradientTransform="matrix(-.00000026 -.117199 .210958 -.00000015 -25.605013 95.392999)" gradientUnits="userSpaceOnUse" r="21.166656" xlink:href="#c"/><radialGradient id="g" cx="450.908936" cy="189.579361" gradientTransform="matrix(.00000026 .117199 -.210958 .00000015 55.373477 -11.291219)" gradientUnits="userSpaceOnUse" r="21.166656" xlink:href="#c"/><linearGradient id="h" gradientUnits="userSpaceOnUse" x1="14.94394" x2="14.94394" y1="42.05096580616" y2="4.34417306195"><stop offset="0" stop-color="#90caf9"/><stop offset="1" stop-color="#bbdefb"/></linearGradient><linearGradient id="i"><stop offset="0" stop-color="#2979ff"/><stop offset="1" stop-color="#448aff"/></linearGradient><linearGradient id="j" gradientUnits="userSpaceOnUse" x1="23.814816" x2="23.814816" xlink:href="#i" y1="42.05096580616" y2="4.34417266504"/><linearGradient id="k" gradientUnits="userSpaceOnUse" x1="13.95163349995" x2="13.95163349995" xlink:href="#i" y1="12.282419" y2="4.34415649995"/><linearGradient id="l" gradientUnits="userSpaceOnUse" x1="43.660427" x2="43.660427" xlink:href="#a" y1="42.0509045" y2="44.03547050005"/><radialGradient id="m" cx="450.908936" cy="189.579361" gradientTransform="matrix(.00000026 -.117199 -.210958 -.00000015 75.219127 95.392999)" gradientUnits="userSpaceOnUse" r="21.166656" xlink:href="#c"/><radialGradient id="n" cx="450.908936" cy="189.579361" gradientTransform="matrix(-.00000026 .117199 .210958 .00000015 -5.759366 -11.291218)" gradientUnits="userSpaceOnUse" r="21.166656" xlink:href="#c"/><radialGradient id="o" cx="450.908936" cy="189.579361" gradientTransform="matrix(-.00000026 -.117199 .210958 -.00000015 -5.759366 95.392999)" gradientUnits="userSpaceOnUse" r="21.166656" xlink:href="#c"/><radialGradient id="p" cx="450.908936" cy="189.579361" gradientTransform="matrix(.00000026 .117199 -.210958 .00000015 75.219124 -11.291219)" gradientUnits="userSpaceOnUse" r="21.166656" xlink:href="#c"/><linearGradient id="q" gradientTransform="matrix(.0768028 -.0537779 .0537779 .0768028 -2.99253 27.747498)" gradientUnits="userSpaceOnUse" x1="222.69519" x2="368.383606" xlink:href="#i" y1="348.627991" y2="140.56337"/><path d="m13.890625 42.050781h1.984375v1.984375h-1.984375zm0 0" fill="url(#b)"/><path d="m15.875 42.050781h3.96875v-1.984375h-3.96875zm0 0" fill="url(#d)"/><path d="m13.890625 42.050781h-3.96875v1.984375h3.96875zm0 0" fill="url(#e)"/><path d="m13.890625 42.050781h-3.96875v-1.984375h3.96875zm0 0" fill="url(#f)"/><path d="m15.875 42.050781h3.96875v1.984375h-3.96875zm0 0" fill="url(#g)"/><path d="m14.945312 4.34375c-2.75 0-4.960937 2.214844-4.960937 4.960938v27.785156c0 2.75 2.210937 4.960937 4.960937 4.960937 2.746094 0 4.960938-2.210937 4.960938-4.960937v-8.929688h5.953125c6.597656 0 11.90625-5.3125 11.90625-11.910156 0-6.59375-5.308594-11.90625-11.90625-11.90625zm0 0" fill="url(#h)"/><path d="m14.945312 4.34375c-2.75 0-4.960937 2.214844-4.960937 4.960938v.992187c0-2.746094 2.210937-4.960937 4.960937-4.960937h10.914063c6.429687 0 11.636719 5.046874 11.898437 11.410156.003907-.164063.007813-.328125.007813-.496094 0-6.59375-5.308594-11.90625-11.90625-11.90625zm0 0" fill="#fff" fill-opacity=".392157"/><path d="m14.882812 6.945312c-.207031 0-.375.167969-.375.375v31.753907c0 .136719.070313.261719.1875.332031.117188.066406.261719.066406.378907 0 .117187-.070312.1875-.195312.183593-.332031v-13.515625h10.542969c5.148438 0 9.304688-4.160156 9.304688-9.308594s-4.15625-9.304688-9.304688-9.304688zm.375.75h10.542969c4.746094 0 8.554688 3.808594 8.554688 8.554688s-3.808594 8.558594-8.554688 8.558594h-10.542969zm0 0" fill="url(#j)"/><path d="m14.945312 4.34375c2.738282 0 4.960938 2.222656 4.960938 4.960938 0 2.742187-2.222656 4.960937-4.960938 4.960937-2.742187 0-4.960937-2.21875-4.960937-4.960937 0-2.738282 2.21875-4.960938 4.960937-4.960938zm0 0" fill="url(#k)"/><path d="m37.757812 15.753906c-.261718 6.367188-5.46875 11.414063-11.898437 11.414063h-5.953125v.992187h5.953125c6.597656 0 11.90625-5.3125 11.90625-11.910156 0-.164062-.003906-.328125-.007813-.496094zm-27.773437 20.34375v.992188c0 2.75 2.210937 4.960937 4.960937 4.960937 2.746094 0 4.960938-2.210937 4.960938-4.960937v-.992188c0 2.75-2.214844 4.960938-4.960938 4.960938-2.75 0-4.960937-2.210938-4.960937-4.960938zm0 0" fill-opacity=".235294"/><path d="m33.738281 42.050781h1.984375v1.984375h-1.984375zm0 0" fill="url(#l)"/><path d="m35.722656 42.050781h3.96875v-1.984375h-3.96875zm0 0" fill="url(#m)"/><path d="m33.738281 42.050781h-3.96875v1.984375h3.96875zm0 0" fill="url(#n)"/><path d="m33.738281 42.050781h-3.96875v-1.984375h3.96875zm0 0" fill="url(#o)"/><path d="m35.722656 42.050781h3.96875v1.984375h-3.96875zm0 0" fill="url(#p)"/><path d="m159.401445-168.671091c-29.330533 0-52.911614 23.622744-52.911614 52.911614v296.3467c0 29.330533 23.581081 52.911614 52.911614 52.911614 29.288869 0 52.911613-23.581081 52.911613-52.911614v-95.240905h63.493937c70.36828 0 126.987873-56.661255 126.987873-127.029536 0-70.326617-56.619593-126.987873-126.987873-126.987873zm0 0" style="fill:none;stroke-width:3;stroke-linecap:round;stroke-linejoin:round;stroke:#212121;stroke-opacity:.959559" transform="matrix(.093759 0 0 .093759 0 20.158175)"/><path d="m21.734375 18.429688c2.246094-1.570313 5.339844-1.023438 6.910156 1.21875l10.246094 14.632812c1.570313 2.242188 1.023437 5.335938-1.21875 6.910156-2.246094 1.570313-5.339844 1.023438-6.910156-1.21875l-10.246094-14.632812c-1.570313-2.242188-1.023437-5.335938 1.21875-6.910156zm0 0" fill="url(#q)"/><path d="m14.945312 4.34375c-2.75 0-4.960937 2.214844-4.960937 4.960938 0 .078124 0 .152343.003906.230468.121094-2.640625 2.285157-4.730468 4.957031-4.730468 2.667969 0 4.835938 2.089843 4.953126 4.730468.003906-.078125.007812-.152344.007812-.230468 0-2.746094-2.214844-4.960938-4.960938-4.960938zm9.667969 13.183594c-.992187-.003906-2 .289062-2.878906.902344-1.449219 1.015624-2.1875 2.652343-2.113281 4.292968.070312-1.480468.800781-2.914062 2.113281-3.832031.878906-.617187 1.886719-.910156 2.878906-.902344 1.550781.011719 3.070313.746094 4.03125 2.121094l10.246094 14.628906c.5625.804688.851563 1.710938.894531 2.617188.050782-1.054688-.238281-2.136719-.894531-3.074219l-10.246094-14.632812c-.960937-1.371094-2.480469-2.109376-4.03125-2.121094zm0 0" fill="#fff" fill-opacity=".392157"/><path d="m9.988281 9.105469c-.003906.066406-.003906.132812-.003906.199219 0 2.75 2.210937 4.960937 4.960937 4.960937 2.746094 0 4.960938-2.210937 4.960938-4.960937 0-.066407-.003906-.132813-.003906-.199219-.101563 2.660156-2.273438 4.769531-4.957032 4.769531-2.683593 0-4.859374-2.109375-4.957031-4.769531zm9.632813 13.191406c-.042969 1.046875.246094 2.113281.894531 3.042969l10.246094 14.632812c1.578125 2.25 4.65625 2.792969 6.910156 1.21875 1.4375-1.007812 2.179687-2.632812 2.113281-4.261718-.058594 1.492187-.789062 2.941406-2.113281 3.867187-2.253906 1.578125-5.332031 1.03125-6.910156-1.21875l-10.246094-14.628906c-.566406-.8125-.859375-1.734375-.894531-2.652344zm0 0" fill-opacity=".235294"/><g fill="#212121"><path d="m14.945312 4.203125c-2.824218 0-5.101562 2.277344-5.101562 5.101563 0 2.824218 2.277344 5.101562 5.101562 5.101562 2.824219 0 5.101563-2.277344 5.101563-5.101562 0-2.824219-2.277344-5.101563-5.101563-5.101563zm0 .28125c2.671876 0 4.820313 2.148437 4.820313 4.820313 0 2.675781-2.148437 4.820312-4.820313 4.820312-2.675781 0-4.820312-2.144531-4.820312-4.820312 0-2.671876 2.144531-4.820313 4.820312-4.820313zm0 0"/><path d="m21.65625 18.316406c-2.316406 1.617188-2.875 4.792969-1.253906 7.105469l10.242187 14.628906c1.621094 2.316407 4.792969 2.875 7.109375 1.253907 2.3125-1.621094 2.871094-4.792969 1.25-7.105469l-10.242187-14.632813c-1.621094-2.3125-4.792969-2.871094-7.105469-1.25zm.160156.230469c2.1875-1.535156 5.179688-1.007813 6.714844 1.183594l10.242188 14.628906c1.535156 2.191406 1.007812 5.183594-1.183594 6.714844-2.1875 1.535156-5.179688 1.007812-6.714844-1.183594l-10.242188-14.632813c-1.535156-2.1875-1.007812-5.179687 1.183594-6.710937zm0 0"/></g></svg>

<?xml version="1.0" encoding="UTF-8"?>
<svg xmlns="http://www.w3.org/2000/svg" xmlns:xlink="http://www.w3.org/1999/xlink" width="48pt" height="48pt" viewBox="0 0 48 48" version="1.1">
<defs>
<linearGradient id="linear0" gradientUnits="userSpaceOnUse" x1="254" y1="233.5" x2="254" y2="254.666672" gradientTransform="matrix(0.093759,0,0,0.093759,-0.00000572259,20.158178)">
<stop offset="0" style="stop-color:rgb(0%,0%,0%);stop-opacity:0.27451;"/>
<stop offset="1" style="stop-color:rgb(0%,0%,0%);stop-opacity:0;"/>
</linearGradient>
<radialGradient id="radial0" gradientUnits="userSpaceOnUse" cx="450.908936" cy="189.579361" fx="450.908936" fy="189.579361" r="21.166656" gradientTransform="matrix(0.000000261256,-0.117199,-0.210958,-0.000000152308,55.37348,95.392999)">
<stop offset="0" style="stop-color:rgb(0%,0%,0%);stop-opacity:0.313725;"/>
<stop offset="0.222222" style="stop-color:rgb(0%,0%,0%);stop-opacity:0.27451;"/>
<stop offset="1" style="stop-color:rgb(0%,0%,0%);stop-opacity:0;"/>
</radialGradient>
<radialGradient id="radial1" gradientUnits="userSpaceOnUse" cx="450.908936" cy="189.579361" fx="450.908936" fy="189.579361" r="21.166656" gradientTransform="matrix(-0.000000261256,0.117199,0.210958,0.000000152308,-25.605013,-11.291218)">
<stop offset="0" style="stop-color:rgb(0%,0%,0%);stop-opacity:0.313725;"/>
<stop offset="0.222222" style="stop-color:rgb(0%,0%,0%);stop-opacity:0.27451;"/>
<stop offset="1" style="stop-color:rgb(0%,0%,0%);stop-opacity:0;"/>
</radialGradient>
<radialGradient id="radial2" gradientUnits="userSpaceOnUse" cx="450.908936" cy="189.579361" fx="450.908936" fy="189.579361" r="21.166656" gradientTransform="matrix(-0.000000261256,-0.117199,0.210958,-0.000000152308,-25.605013,95.392999)">
<stop offset="0" style="stop-color:rgb(0%,0%,0%);stop-opacity:0.313725;"/>
<stop offset="0.222222" style="stop-color:rgb(0%,0%,0%);stop-opacity:0.27451;"/>
<stop offset="1" style="stop-color:rgb(0%,0%,0%);stop-opacity:0;"/>
</radialGradient>
<radialGradient id="radial3" gradientUnits="userSpaceOnUse" cx="450.908936" cy="189.579361" fx="450.908936" fy="189.579361" r="21.166656" gradientTransform="matrix(0.000000261256,0.117199,-0.210958,0.000000152308,55.373477,-11.291219)">
<stop offset="0" style="stop-color:rgb(0%,0%,0%);stop-opacity:0.313725;"/>
<stop offset="0.222222" style="stop-color:rgb(0%,0%,0%);stop-opacity:0.27451;"/>
<stop offset="1" style="stop-color:rgb(0%,0%,0%);stop-opacity:0;"/>
</radialGradient>
<linearGradient id="linear1" gradientUnits="userSpaceOnUse" x1="680" y1="1695.118164" x2="680" y2="175.118134" gradientTransform="matrix(0.0248071,0,0,0.0248071,-1.924888,0.00000000000000282)">
<stop offset="0" style="stop-color:rgb(40%,73.333333%,41.568627%);stop-opacity:1;"/>
<stop offset="1" style="stop-color:rgb(50.588235%,78.039216%,51.764706%);stop-opacity:1;"/>
</linearGradient>
<linearGradient id="linear2" gradientUnits="userSpaceOnUse" x1="169.333328" y1="-84" x2="169.333328" y2="-168.666672" gradientTransform="matrix(0.093759,0,0,0.093759,-1.92489,20.158175)">
<stop offset="0" style="stop-color:rgb(67.058824%,27.843137%,73.72549%);stop-opacity:1;"/>
<stop offset="1" style="stop-color:rgb(72.941176%,40.784314%,78.431373%);stop-opacity:1;"/>
</linearGradient>
<linearGradient id="linear3" gradientUnits="userSpaceOnUse" x1="254" y1="233.5" x2="254" y2="254.666672" gradientTransform="matrix(0.093759,0,0,0.093759,19.845641,20.158178)">
<stop offset="0" style="stop-color:rgb(0%,0%,0%);stop-opacity:0.27451;"/>
<stop offset="1" style="stop-color:rgb(0%,0%,0%);stop-opacity:0;"/>
</linearGradient>
<radialGradient id="radial4" gradientUnits="userSpaceOnUse" cx="450.908936" cy="189.579361" fx="450.908936" fy="189.579361" r="21.166656" gradientTransform="matrix(0.000000261256,-0.117199,-0.210958,-0.000000152308,75.219127,95.392999)">
<stop offset="0" style="stop-color:rgb(0%,0%,0%);stop-opacity:0.313725;"/>
<stop offset="0.222222" style="stop-color:rgb(0%,0%,0%);stop-opacity:0.27451;"/>
<stop offset="1" style="stop-color:rgb(0%,0%,0%);stop-opacity:0;"/>
</radialGradient>
<radialGradient id="radial5" gradientUnits="userSpaceOnUse" cx="450.908936" cy="189.579361" fx="450.908936" fy="189.579361" r="21.166656" gradientTransform="matrix(-0.000000261256,0.117199,0.210958,0.000000152308,-5.759366,-11.291218)">
<stop offset="0" style="stop-color:rgb(0%,0%,0%);stop-opacity:0.313725;"/>
<stop offset="0.222222" style="stop-color:rgb(0%,0%,0%);stop-opacity:0.27451;"/>
<stop offset="1" style="stop-color:rgb(0%,0%,0%);stop-opacity:0;"/>
</radialGradient>
<radialGradient id="radial6" gradientUnits="userSpaceOnUse" cx="450.908936" cy="189.579361" fx="450.908936" fy="189.579361" r="21.166656" gradientTransform="matrix(-0.000000261256,-0.117199,0.210958,-0.000000152308,-5.759366,95.392999)">
<stop offset="0" style="stop-color:rgb(0%,0%,0%);stop-opacity:0.313725;"/>
<stop offset="0.222222" style="stop-color:rgb(0%,0%,0%);stop-opacity:0.27451;"/>
<stop offset="1" style="stop-color:rgb(0%,0%,0%);stop-opacity:0;"/>
</radialGradient>
<radialGradient id="radial7" gradientUnits="userSpaceOnUse" cx="450.908936" cy="189.579361" fx="450.908936" fy="189.579361" r="21.166656" gradientTransform="matrix(0.000000261256,0.117199,-0.210958,0.000000152308,75.219124,-11.291219)">
<stop offset="0" style="stop-color:rgb(0%,0%,0%);stop-opacity:0.313725;"/>
<stop offset="0.222222" style="stop-color:rgb(0%,0%,0%);stop-opacity:0.27451;"/>
<stop offset="1" style="stop-color:rgb(0%,0%,0%);stop-opacity:0;"/>
</radialGradient>
<linearGradient id="linear4" gradientUnits="userSpaceOnUse" x1="222.69519" y1="348.627991" x2="368.383606" y2="140.56337" gradientTransform="matrix(0.0768028,-0.0537779,0.0537779,0.0768028,-2.99253,27.747498)">
<stop offset="0" style="stop-color:rgb(67.058824%,27.843137%,73.72549%);stop-opacity:1;"/>
<stop offset="1" style="stop-color:rgb(72.941176%,40.784314%,78.431373%);stop-opacity:1;"/>
</linearGradient>
</defs>
<g id="surface1">
<path style=" stroke:none;fill-rule:nonzero;fill:url(#linear0);" d="M 13.890625 42.050781 L 15.875 42.050781 L 15.875 44.035156 L 13.890625 44.035156 Z M 13.890625 42.050781 "/>
<path style=" stroke:none;fill-rule:nonzero;fill:url(#radial0);" d="M 15.875 42.050781 L 19.84375 42.050781 L 19.84375 40.066406 L 15.875 40.066406 Z M 15.875 42.050781 "/>
<path style=" stroke:none;fill-rule:nonzero;fill:url(#radial1);" d="M 13.890625 42.050781 L 9.921875 42.050781 L 9.921875 44.035156 L 13.890625 44.035156 Z M 13.890625 42.050781 "/>
<path style=" stroke:none;fill-rule:nonzero;fill:url(#radial2);" d="M 13.890625 42.050781 L 9.921875 42.050781 L 9.921875 40.066406 L 13.890625 40.066406 Z M 13.890625 42.050781 "/>
<path style=" stroke:none;fill-rule:nonzero;fill:url(#radial3);" d="M 15.875 42.050781 L 19.84375 42.050781 L 19.84375 44.035156 L 15.875 44.035156 Z M 15.875 42.050781 "/>
<path style=" stroke:none;fill-rule:nonzero;fill:url(#linear1);" d="M 14.945312 4.34375 C 12.195312 4.34375 9.984375 6.558594 9.984375 9.304688 L 9.984375 37.089844 C 9.984375 39.839844 12.195312 42.050781 14.945312 42.050781 C 17.691406 42.050781 19.90625 39.839844 19.90625 37.089844 L 19.90625 28.160156 L 25.859375 28.160156 C 32.457031 28.160156 37.765625 22.847656 37.765625 16.25 C 37.765625 9.65625 32.457031 4.34375 25.859375 4.34375 Z M 14.945312 4.34375 "/>
<path style=" stroke:none;fill-rule:nonzero;fill:rgb(100%,100%,100%);fill-opacity:0.392157;" d="M 14.945312 4.34375 C 12.195312 4.34375 9.984375 6.558594 9.984375 9.304688 L 9.984375 10.296875 C 9.984375 7.550781 12.195312 5.335938 14.945312 5.335938 L 25.859375 5.335938 C 32.289062 5.335938 37.496094 10.382812 37.757812 16.746094 C 37.761719 16.582031 37.765625 16.417969 37.765625 16.25 C 37.765625 9.65625 32.457031 4.34375 25.859375 4.34375 Z M 14.945312 4.34375 "/>
<path style=" stroke:none;fill-rule:nonzero;fill:url(#linear2);" d="M 14.945312 4.34375 C 17.683594 4.34375 19.90625 6.566406 19.90625 9.304688 C 19.90625 12.046875 17.683594 14.265625 14.945312 14.265625 C 12.203125 14.265625 9.984375 12.046875 9.984375 9.304688 C 9.984375 6.566406 12.203125 4.34375 14.945312 4.34375 Z M 14.945312 4.34375 "/>
<path style=" stroke:none;fill-rule:nonzero;fill:rgb(0%,0%,0%);fill-opacity:0.235294;" d="M 37.757812 15.753906 C 37.496094 22.121094 32.289062 27.167969 25.859375 27.167969 L 19.90625 27.167969 L 19.90625 28.160156 L 25.859375 28.160156 C 32.457031 28.160156 37.765625 22.847656 37.765625 16.25 C 37.765625 16.085938 37.761719 15.921875 37.757812 15.753906 Z M 9.984375 36.097656 L 9.984375 37.089844 C 9.984375 39.839844 12.195312 42.050781 14.945312 42.050781 C 17.691406 42.050781 19.90625 39.839844 19.90625 37.089844 L 19.90625 36.097656 C 19.90625 38.847656 17.691406 41.058594 14.945312 41.058594 C 12.195312 41.058594 9.984375 38.847656 9.984375 36.097656 Z M 9.984375 36.097656 "/>
<path style=" stroke:none;fill-rule:nonzero;fill:url(#linear3);" d="M 33.738281 42.050781 L 35.722656 42.050781 L 35.722656 44.035156 L 33.738281 44.035156 Z M 33.738281 42.050781 "/>
<path style=" stroke:none;fill-rule:nonzero;fill:url(#radial4);" d="M 35.722656 42.050781 L 39.691406 42.050781 L 39.691406 40.066406 L 35.722656 40.066406 Z M 35.722656 42.050781 "/>
<path style=" stroke:none;fill-rule:nonzero;fill:url(#radial5);" d="M 33.738281 42.050781 L 29.769531 42.050781 L 29.769531 44.035156 L 33.738281 44.035156 Z M 33.738281 42.050781 "/>
<path style=" stroke:none;fill-rule:nonzero;fill:url(#radial6);" d="M 33.738281 42.050781 L 29.769531 42.050781 L 29.769531 40.066406 L 33.738281 40.066406 Z M 33.738281 42.050781 "/>
<path style=" stroke:none;fill-rule:nonzero;fill:url(#radial7);" d="M 35.722656 42.050781 L 39.691406 42.050781 L 39.691406 44.035156 L 35.722656 44.035156 Z M 35.722656 42.050781 "/>
<path style="fill:none;stroke-width:3;stroke-linecap:round;stroke-linejoin:round;stroke:rgb(12.941177%,12.941177%,12.941177%);stroke-opacity:0.960784;stroke-miterlimit:4;" d="M 159.401445 -168.671091 C 130.070912 -168.671091 106.489831 -145.048347 106.489831 -115.759477 L 106.489831 180.587223 C 106.489831 209.917756 130.070912 233.498837 159.401445 233.498837 C 188.690314 233.498837 212.313058 209.917756 212.313058 180.587223 L 212.313058 85.346318 L 275.806995 85.346318 C 346.175275 85.346318 402.794868 28.685063 402.794868 -41.683218 C 402.794868 -112.009835 346.175275 -168.671091 275.806995 -168.671091 Z M 159.401445 -168.671091 " transform="matrix(0.093759,0,0,0.093759,0,20.158175)"/>
<path style=" stroke:none;fill-rule:nonzero;fill:url(#linear4);" d="M 21.734375 18.429688 C 23.980469 16.859375 27.074219 17.40625 28.644531 19.648438 L 38.890625 34.28125 C 40.460938 36.523438 39.914062 39.617188 37.671875 41.191406 C 35.425781 42.761719 32.332031 42.214844 30.761719 39.972656 L 20.515625 25.339844 C 18.945312 23.097656 19.492188 20.003906 21.734375 18.429688 Z M 21.734375 18.429688 "/>
<path style=" stroke:none;fill-rule:nonzero;fill:rgb(100%,100%,100%);fill-opacity:0.392157;" d="M 14.945312 4.34375 C 12.195312 4.34375 9.984375 6.558594 9.984375 9.304688 C 9.984375 9.382812 9.984375 9.457031 9.988281 9.535156 C 10.109375 6.894531 12.273438 4.804688 14.945312 4.804688 C 17.613281 4.804688 19.78125 6.894531 19.898438 9.535156 C 19.902344 9.457031 19.90625 9.382812 19.90625 9.304688 C 19.90625 6.558594 17.691406 4.34375 14.945312 4.34375 Z M 24.613281 17.527344 C 23.621094 17.523438 22.613281 17.816406 21.734375 18.429688 C 20.285156 19.445312 19.546875 21.082031 19.621094 22.722656 C 19.691406 21.242188 20.421875 19.808594 21.734375 18.890625 C 22.613281 18.273438 23.621094 17.980469 24.613281 17.988281 C 26.164062 18 27.683594 18.734375 28.644531 20.109375 L 38.890625 34.738281 C 39.453125 35.542969 39.742188 36.449219 39.785156 37.355469 C 39.835938 36.300781 39.546875 35.21875 38.890625 34.28125 L 28.644531 19.648438 C 27.683594 18.277344 26.164062 17.539062 24.613281 17.527344 Z M 24.613281 17.527344 "/>
<path style=" stroke:none;fill-rule:nonzero;fill:rgb(0%,0%,0%);fill-opacity:0.235294;" d="M 9.988281 9.105469 C 9.984375 9.171875 9.984375 9.238281 9.984375 9.304688 C 9.984375 12.054688 12.195312 14.265625 14.945312 14.265625 C 17.691406 14.265625 19.90625 12.054688 19.90625 9.304688 C 19.90625 9.238281 19.902344 9.171875 19.902344 9.105469 C 19.800781 11.765625 17.628906 13.875 14.945312 13.875 C 12.261719 13.875 10.085938 11.765625 9.988281 9.105469 Z M 19.621094 22.296875 C 19.578125 23.34375 19.867188 24.410156 20.515625 25.339844 L 30.761719 39.972656 C 32.339844 42.222656 35.417969 42.765625 37.671875 41.191406 C 39.109375 40.183594 39.851562 38.558594 39.785156 36.929688 C 39.726562 38.421875 38.996094 39.871094 37.671875 40.796875 C 35.417969 42.375 32.339844 41.828125 30.761719 39.578125 L 20.515625 24.949219 C 19.949219 24.136719 19.65625 23.214844 19.621094 22.296875 Z M 19.621094 22.296875 "/>
<path style=" stroke:none;fill-rule:nonzero;fill:rgb(12.941177%,12.941177%,12.941177%);fill-opacity:1;" d="M 14.945312 4.203125 C 12.121094 4.203125 9.84375 6.480469 9.84375 9.304688 C 9.84375 12.128906 12.121094 14.40625 14.945312 14.40625 C 17.769531 14.40625 20.046875 12.128906 20.046875 9.304688 C 20.046875 6.480469 17.769531 4.203125 14.945312 4.203125 Z M 14.945312 4.484375 C 17.617188 4.484375 19.765625 6.632812 19.765625 9.304688 C 19.765625 11.980469 17.617188 14.125 14.945312 14.125 C 12.269531 14.125 10.125 11.980469 10.125 9.304688 C 10.125 6.632812 12.269531 4.484375 14.945312 4.484375 Z M 14.945312 4.484375 "/>
<path style=" stroke:none;fill-rule:nonzero;fill:rgb(12.941177%,12.941177%,12.941177%);fill-opacity:1;" d="M 21.65625 18.316406 C 19.339844 19.933594 18.78125 23.109375 20.402344 25.421875 L 30.644531 40.050781 C 32.265625 42.367188 35.4375 42.925781 37.753906 41.304688 C 40.066406 39.683594 40.625 36.511719 39.003906 34.199219 L 28.761719 19.566406 C 27.140625 17.253906 23.96875 16.695312 21.65625 18.316406 Z M 21.816406 18.546875 C 24.003906 17.011719 26.996094 17.539062 28.53125 19.730469 L 38.773438 34.359375 C 40.308594 36.550781 39.78125 39.542969 37.589844 41.074219 C 35.402344 42.609375 32.410156 42.082031 30.875 39.890625 L 20.632812 25.257812 C 19.097656 23.070312 19.625 20.078125 21.816406 18.546875 Z M 21.816406 18.546875 "/>
</g>
</svg>
